flags/au-tas.svg

<svg width="512" height="512" viewBox="0 0 512 512" fill="none" xmlns="http://www.w3.org/2000/svg">
<rect width="512" height="512" fill="var(--flag-palette-navy, #002266)"/>
<rect width="256" height="256" fill="var(--flag-palette-navy, #002266)"/>
<path d="M232 256H256V232L152 128L256 24V0H232L128 104L24 0H0V24L104 128L0 232V256H24L128 152L232 256Z" fill="var(--flag-palette-white, #eeeeee)"/>
<path d="M256 160V96H160V0H96V96H0V160H96V256H160V160H256Z" fill="var(--flag-palette-white, #eeeeee)"/>
<path d="M256 144V112H144V0H112V112H0V144H112V256H144V144H256Z" fill="var(--flag-palette-bright-red, #d80027)"/>
<path d="M0 16V0L96 96H80L0 16Z" fill="var(--flag-palette-bright-red, #d80027)"/>
<path d="M256 240L256 256L160 160L176 160L256 240Z" fill="var(--flag-palette-bright-red, #d80027)"/>
<path d="M16 256L0 256L96 160L96 176L16 256Z" fill="var(--flag-palette-bright-red, #d80027)"/>
<path d="M240 -6.99382e-07L256 0L160 96L160 80L240 -6.99382e-07Z" fill="var(--flag-palette-bright-red, #d80027)"/>
<path d="M382 330C422.869 330 456 296.869 456 256C456 215.131 422.869 182 382 182C341.131 182 308 215.131 308 256C308 296.869 341.131 330 382 330Z" fill="var(--flag-palette-white, #eeeeee)"/>
<path d="M363 221C359.287 221 355.726 222.475 353.1 225.101C350.475 227.726 349 231.287 349 235V245H344V239C344 233 339 228 333 228C332.204 228 331.441 228.316 330.879 228.879C330.316 229.441 330 230.204 330 231V256C330 257 331 259 333 259H349C349.252 262.272 350.733 265.327 353.144 267.552C355.555 269.778 358.719 271.01 362 271V277H357C350 277 345 282 345 288L348 291H373C375 291 376 289 376 288V271H410V276H405C399 276 394 281 394 287C394 289 395 290 397 290H421C423 290 424 289 424 287V254C429 254 434 250 434 245C434 239 429 235 424 235H392C391.204 235 390.441 234.684 389.879 234.121C389.316 233.559 389 232.796 389 232C389 230 390 229 392 229H424V222H392C389.999 222.658 388.257 223.93 387.022 225.636C385.787 227.342 385.122 229.394 385.122 231.5C385.122 233.606 385.787 235.658 387.022 237.364C388.257 239.07 389.999 240.342 392 241H424C426 241 427 243 427 245C427 246 426 248 424 248H389C382 248 376 242 376 235C376.009 231.454 374.672 228.036 372.259 225.438C369.846 222.839 366.537 221.253 363 221Z" fill="var(--flag-palette-bright-red, #d80027)"/>
</svg>

<svg xmlns="http://www.w3.org/2000/svg" width="512" height="512" fill="none"><path fill="var(--flag-palette-navy, #002266)" d="M0 0h512v512H0z"/><path fill="var(--flag-palette-navy, #002266)" d="M0 0h256v256H0z"/><path fill="var(--flag-palette-white, #eeeeee)" d="M232 256h24v-24L152 128 256 24V0h-24L128 104 24 0H0v24l104 104L0 232v24h24l104-104z"/><path fill="var(--flag-palette-white, #eeeeee)" d="M256 160V96h-96V0H96v96H0v64h96v96h64v-96z"/><path fill="var(--flag-palette-bright-red, #d80027)" d="M256 144v-32H144V0h-32v112H0v32h112v112h32V144z"/><path fill="var(--flag-palette-bright-red, #d80027)" d="M0 16V0l96 96H80zm256 224v16l-96-96h16zM16 256H0l96-96v16zM240 0h16l-96 96V80z"/><path fill="var(--flag-palette-white, #eeeeee)" d="M382 330a74 74 0 1 0 0-148 74 74 0 0 0 0 148"/><path fill="var(--flag-palette-bright-red, #d80027)" d="M363 221a14 14 0 0 0-14 14v10h-5v-6c0-6-5-11-11-11a3 3 0 0 0-3 3v25c0 1 1 3 3 3h16a13 13 0 0 0 13 12v6h-5c-7 0-12 5-12 11l3 3h25c2 0 3-2 3-3v-17h34v5h-5c-6 0-11 5-11 11q0 3 3 3h24q3 0 3-3v-33c5 0 10-4 10-9 0-6-5-10-10-10h-32a3 3 0 0 1-3-3q0-3 3-3h32v-7h-32a10 10 0 0 0 0 19h32c2 0 3 2 3 4 0 1-1 3-3 3h-35c-7 0-13-6-13-13a14 14 0 0 0-13-14"/></svg>
